X:1
T:Title
%%score { 1 | 2 }
L:1/8
M:4/4
K:Bb
V:1 treble nm="Grand Piano"
V:2 bass 
V:1
 z4 z2[Q:1/4=116] [DF][EG] | [DB]2 [DB]2 c2 B2 | A2 G2 [DF]4 | [EG]2 [Ge]2 d2 c2 | %4
[M:3/4] [DB]4 [DB]2 |[M:1/4] [DF][EG] |[M:4/4] [DB]2 [DB]2 c2 B2 | A2 G2 [DF]4 | %8
 [EG]2 [Ge]2 d2 c2 | [DB]6 z2 | [Fc]3 [Fc] [FB]2 c2 | d6 d2 | e2 d2 c2 B2 |[M:7/8] d2 c2 c3 | %14
[M:1/4] [DF][EG] |[M:4/4] [DB]2 [DB]2 c2 B2 | A2 G2 [DF]4 | [EG]2 [Ge]2 d2 c2 |[M:8/4] [DB]8 z8 |] %19
V:2
 z4 z2 [B,,B,]2 | [B,,F,]2 [B,,F,]2 [E,G,E]2 [E,G,E]2 | [E,B,E]2 [E,B,E]2 [B,,B,]4 | %3
 [E,B,]2 [E,B,]2 [F,B,F]2 [F,E]2 |[M:3/4] [B,,F,]4 [B,,F,]2 |[M:1/4] [B,,B,]2 | %6
[M:4/4] [B,,F,]2 [B,,F,]2 [E,G,E]2 [E,G,E]2 | [E,A,E]2 [E,B,E]2 [B,,B,]4 | %8
 [E,B,]2 [E,B,]2 [F,B,F]2 [F,E]2 | [B,,F,]6 z2 | [F,A,]3 [F,A,] [D,B,]2[K:treble] [F,A,F]2 | %11
 [B,F]6 [B,DB]2 | [CEc]2 [B,DB]2 [A,CA]2 [G,B,G]2 |[M:7/8][K:bass] [F,B,F]2 [F,A,F]2 [F,A,F]3 | %14
[M:1/4] [B,,B,]2 |[M:4/4] [B,,F,]2 [B,,F,]2 [E,G,E]2 [E,G,E]2 | [E,A,E]2 [E,B,E]2 [B,,B,]4 | %17
 [E,B,]2 [E,B,]2 [F,B,F]2 [F,E]2 |[M:8/4] [B,,F,]8 z8 |] %19

